!!!COM:	Martini, Johannes
!!!CDT:	~1440///-~1497//
!!!OTL:	J'ay pris amours I
!!!AGN:	Song; Chanson
!!!SCT:	Mar3013
!!!SCA:	Mar3013
!!!voices:	4
**kern	**kern	**kern	**kern
*staff4	*staff3	*staff2	*staff1
*Ivox	*Ivox	*Ivox	*Ivox
*I"[Comes]	*I"[Dux]	*I"Tenor	*I"Cantus
*I'Co	*I'Dx	*I'T	*I'Cn
*clefGv2	*clefGv2	*clefGv2	*clefG2
*k[]	*k[]	*k[]	*k[]
*M2/1	*M2/1	*M2/1	*M2/1
*met(C|)	*met(C|)	*met(C|)	*met(C|)
=1-	=1-	=1-	=1-
!	!LO:TX:Z=18:t=Canon&colon; pre-sequar [unison canon at the minim]	!	!LO:TX:Z=12:t=Upper voices are from the well-known anonymous song
!	!	!	!LO:TX:Z=32:t=Rondeau
2r	2.A/	0A	0a
2.A/	.	.	.
.	4B\	.	.
.	2.c\	.	.
4B\	.	.	.
[2c\	.	.	.
.	4d\	.	.
=2	=2	=2	=2
4c\]	2e\	1A	1cc
4d\	.	.	.
2e\	2A/	.	.
2A/	2e\	1A	1cc
2e\	[2e\	.	.
=3	=3	=3	=3
2.e\	4e\]	0G	0b
.	4d\	.	.
.	2B\	.	.
4d\	.	.	.
2B\	2r	.	.
2r	2e\	.	.
=4	=4	=4	=4
2e\	2c\	1.A	0e
2c\	2A/	.	.
2A/	2.c\	.	.
[2c\	.	2G/	.
.	4d\	.	.
=5	=5	=5	=5
4c\]	2e\	0E	1r
4d\	.	.	.
2e\	2c\	.	.
2c\	2r	.	1g
2r	2e\	.	.
=6	=6	=6	=6
2e\	4c\	1r	1a
.	4d\	.	.
4c\	4e\	.	.
4d\	4f\	.	.
4e\	2g\	1G	1b
4f\	.	.	.
2g\	2e\	.	.
=7	=7	=7	=7
2e\	4c\	1A	1cc
.	4d\	.	.
4c\	2e\	.	.
4d\	.	.	.
2e\	2E/	1B	2b\
2E/	2r	.	2g/
=8	=8	=8	=8
2r	2C/	1c	1a
2C/	2E/	.	.
2E/	2G/	2B\	1g
2G/	2r	2G/	.
=9	=9	=9	=9
2r	2c\	1A	1r
2c\	2e\	.	.
2e\	2.g\	1G	1b
[2g\	.	.	.
.	4f\	.	.
=10	=10	=10	=10
4g\]	4e\	1r	1cc
4f\	4f\	.	.
4e\	4g\	.	.
4f\	4f\	.	.
4g\	2d\	1B	1dd
4f\	.	.	.
2d\	2r	.	.
=11	=11	=11	=11
2r	1g	1c	1ee
1g	.	.	.
.	1G	1d	2dd\
[2G/	.	.	2b\
=12	=12	=12	=12
2G/]	2C/	2e\	2cc\
2C/	2r	1c	1a
2r	2.F/	.	.
[2F/	.	2d\	2b\
.	4G/	.	.
=13	=13	=13	=13
4F/]	2A/	2c\	2a/
4G/	.	.	.
2A/	2r	2A/	2f#i/
2r	2E/	1B	1g#i
2E/	2e\	.	.
=14	=14	=14	=14
2e\	2.c\	0A	0a
2.c\	.	.	.
.	4d\	.	.
.	4e\	.	.
4d\	4f\	.	.
4e\	2e\	.	.
4f\	.	.	.
=15	=15	=15	=15
2e\	2A/	1A	0r
2A/	2r	.	.
2r	2B\	1G	.
2B\	[2d\	.	.
=16	=16	=16	=16
2.d\	4d\]	0F	0a
.	4c\	.	.
.	2A/	.	.
4c\	.	.	.
2A/	2.c\	.	.
[2c\	.	.	.
.	4B\	.	.
=17	=17	=17	=17
4c\]	1G	0E	1cc
4B\	.	.	.
1G	.	.	.
.	2r	.	[1b
2r	2G/	.	.
=18	=18	=18	=18
2G/	4E/	1r	1b]
.	4F/	.	.
4E/	2G/	.	.
4F/	.	.	.
2G/	2C/	1e	1g
2C/	2c\	.	.
=19	=19	=19	=19
2c\	2F/	1f	1a
2F/	2.c\	.	.
2.c\	.	1e	[1g
.	4d\	.	.
.	[2e\	.	.
4d\	.	.	.
=20	=20	=20	=20
2.e\	4e\]	0c	1g]
.	4f\	.	.
.	2g\	.	.
4f\	.	.	.
2g\	2e\	.	[1cc
2e\	2g\	.	.
=21	=21	=21	=21
2g\	4G/	0d	2cc\]
.	4A/	.	.
4G/	4B\	.	2a/
4A/	4A/	.	.
4B\	4G/	.	1b
4A/	4F/	.	.
4G/	2G/	.	.
4F/	.	.	.
=22	=22	=22	=22
2G/	2C/	[0c	0cc
2C/	2.E/	.	.
2.E/	.	.	.
.	4F/	.	.
.	2G/	.	.
4F/	.	.	.
=23	=23	=23	=23
2G/	2C/	1c]	0r
2C/	2G/	.	.
2G/	2E/	1B	.
2E/	2e\	.	.
=24	=24	=24	=24
2e\	2.c\	0A	0cc
2.c\	.	.	.
.	4d\	.	.
.	2.e\	.	.
4d\	.	.	.
[2e\	.	.	.
.	4f\	.	.
=25	=25	=25	=25
4e\]	2g\	1G	1b
4f\	.	.	.
2g\	2e\	.	.
2e\	2c\	[1c	1g
2c\	2r	.	.
=26	=26	=26	=26
2r	2A/	1c]	0a
2A/	2F/	.	.
2F/	2D/	1d	.
2D/	2r	.	.
=27	=27	=27	=27
2r	2E/	0e	1g
2E/	2C/	.	.
2C/	2.c\	.	[1e
[2c\	.	.	.
.	4d\	.	.
=28	=28	=28	=28
4c\]	2e\	0A	1e]
4d\	.	.	.
2e\	2A/	.	.
2A/	2.c\	.	[1a
[2c\	.	.	.
.	4d\	.	.
=29	=29	=29	=29
4c\]	2.e\	1c	1a]
4d\	.	.	.
2.e\	.	.	.
.	4E/	.	.
.	2.E/	1B	1g
4E/	.	.	.
[2E/	.	.	.
.	4C/	.	.
=30	=30	=30	=30
4E/]	2C/	1c	1a
4C/	.	.	.
2C/	2r	.	.
2r	4G/	1d	1b
.	4A/	.	.
4G/	2B\	.	.
4A/	.	.	.
=31	=31	=31	=31
!	!	!	!LO:TX:Z=8:t=s.c.
2B\	1E	1.e	0g
1E	.	.	.
.	2E/	.	.
!	!LO:TX:Z=8:t=[s.c.]	!	!
2E/	[2E/	4d\	.
.	.	4c\	.
=32	=32	=32	=32
!LO:TX:Z=8:t=[s.c.]	!	!LO:TX:Z=8:t=[s.c.]	!
2.E/	4E/]	1B	0r
.	4F/	.	.
.	2.G/	.	.
4F/	.	.	.
2.G/	.	1r	.
.	4F/	.	.
.	4E/	.	.
4F/	4D/	.	.
=33	=33	=33	=33
4E/	2G/	0E	0g
4D/	.	.	.
2G/	2C/	.	.
2C/	2c\	.	.
2c\	2c\	.	.
=34	=34	=34	=34
2c\	2A/	1F	1.a
2A/	2c\	.	.
2c\	2r	1E	.
2r	2c\	.	2g/
=35	=35	=35	=35
2c\	2.c\	1A	2f/
2.c\	.	.	2e/
.	4d\	.	.
.	2e\	1G	[1e
4d\	.	.	.
2e\	2r	.	.
=36	=36	=36	=36
2r	2A/	0F	1e]
2A/	2c\	.	.
2c\	2A/	.	1d
2A/	2r	.	.
=37	=37	=37	=37
2r	2G/	[0E	0e
2G/	2.c\	.	.
2.c\	.	.	.
.	4B\	.	.
.	2c\	.	.
4B\	.	.	.
=38	=38	=38	=38
2c\	2.G/	0E]	1r
2.G/	.	.	.
.	4A/	.	.
.	2.B\	.	1b
4A/	.	.	.
[2B\	.	.	.
.	4c\	.	.
=39	=39	=39	=39
4B\]	2d\	1r	1b
4c\	.	.	.
2d\	2G/	.	.
2G/	2g\	1G	1b
2g\	2e\	.	.
=40	=40	=40	=40
2e\	2c\	1A	1.cc
2c\	2r	.	.
2r	2G/	1B	.
2G/	2E/	.	4b\
.	.	.	4a/
=41	=41	=41	=41
2E/	2.C/	1.c	1g
2.C/	.	.	.
.	4D/	.	.
.	2.E/	.	1a
4D/	.	.	.
[2E/	.	2B\	.
.	4F/	.	.
=42	=42	=42	=42
4E/]	2G/	1G	1b
4F/	.	.	.
2G/	2.d\	.	.
2.d\	.	1B	[1g
.	4d\	.	.
.	2d\	.	.
4d\	.	.	.
=43	=43	=43	=43
2d\	2D/	0A	2g/]
2D/	2r	.	2f#i/
2r	2D/	.	2f#i/
2D/	[2d\	.	2e/
=44	=44	=44	=44
2.d\	4d\]	[0G	0g
.	4c\	.	.
.	2.B\	.	.
4c\	.	.	.
2.B\	.	.	.
.	4A/	.	.
.	[2G/	.	.
4A/	.	.	.
=45	=45	=45	=45
2.G/	4G/]	0G]	1r
.	4A/	.	.
.	2B\	.	.
4A/	.	.	.
2B\	2E/	.	1e
2E/	2r	.	.
=46	=46	=46	=46
2r	2A/	1r	1f
2A/	2c\	.	.
2c\	2G/	1E	1g
2G/	2c\	.	.
=47	=47	=47	=47
2c\	2A/	1F	1a
2A/	2r	.	.
2r	2B\	1G	1e
2B\	2e\	.	.
=48	=48	=48	=48
2e\	2.c\	1A	1r
2.c\	.	.	.
.	4d\	.	.
.	2.e\	1E	1g
4d\	.	.	.
[2e\	.	.	.
.	4d\	.	.
=49	=49	=49	=49
4e\]	2c\	1r	1a
4d\	.	.	.
2c\	2.e\	.	.
2.e\	.	1G	1g
.	4e\	.	.
.	[2e\	.	.
4e\	.	.	.
=50	=50	=50	=50
2.e\	4e\]	1A	1.cc
.	4d\	.	.
.	4e\	.	.
4d\	4f\	.	.
4e\	2g\	1G	.
4f\	.	.	.
2g\	2e\	.	2b\
=51	=51	=51	=51
2e\	2c\	1.c	1a
2c\	2.e\	.	.
2.e\	.	.	1g
.	4e\	.	.
.	[2e\	2B\	.
4e\	.	.	.
=52	=52	=52	=52
2.e\	4e\]	1A	1cc
.	4d\	.	.
.	4e\	.	.
4d\	4f\	.	.
4e\	2g\	1G	2b\
4f\	.	.	.
2g\	2e\	.	[2ee\
=53	=53	=53	=53
2e\	2c\	1c	2ee\]
2c\	2r	.	2dd\
2r	2.f\	1d	1b
[2f\	.	.	.
.	4e\	.	.
=54	=54	=54	=54
4f\]	4c\	0A	1cc
4e\	4d\	.	.
4c\	2e\	.	.
4d\	.	.	.
2e\	2A/	.	[1a
2A/	2r	.	.
=55	=55	=55	=55
2r	1.E	0B	2a/]
1.E	.	.	2f#i/
.	.	.	1g#i
.	[2e\	.	.
=56	=56	=56	=56
1.e	1e]	[0Al	[0al
.	2.c\	.	.
[2c\	.	.	.
.	4d\	.	.
=57	=57	=57	=57
4c\]	0el	0A]	0a]
4d\	.	.	.
1.el	.	.	.
==	==	==	==
*-	*-	*-	*-
!!!RDF**kern: l=long note in original notation
!!!RDF**kern: i=editorial accidental
!!!ENC:	Chris Gage 11-06-2014
!!!END:	2015/03/01/
!!!EED:	Jesse Rodin
!!!EEV:	2015/03/05/
!!!ONB:	Translated from MusicXML and edited on 2015/03/05/ by Craig Sapp
!!muse2ps: C^@{COM}^i2I150v85,85,85,150Q16
